X:1
T:Whiter Than Snow
T:Whiter Than Snow
T:James Braswell
T:James Braswell, 1898
T:Public Domain Courtesy of the Cyber Hymnal™
C:James Braswell
Z:Public Domain
Z:Courtesy of the Cyber Hymnal™
%%score ( 1 2 ) ( 3 4 )
L:1/8
Q:1/4=90
M:6/8
K:Bb
V:1 treble 
V:2 treble 
V:3 bass 
V:4 bass 
V:1
 F | [FB][FB][FB] [GB][FA][EG] | [DF][DB][B,D] [DF]2 [DF] | [CE][DF][EG] [DF][DB][B,D] | %4
w: 1.~O|come to the Sav- ior, O|come and be cleansed As|pure as the wa- ters that|
w: 2.~O|come to the Sav- ior, O|do not de- lay, For|life with us quick- ly doth|
w: 3.~O|come to the Sav- ior, O|come and find peace, Yes,|come and find balm for your|
 [A,C]3- [A,C]2 [A,C] | [B,D][B,D][B,D] [B,D][B,D][B,D] | [B,E][B,F][EG] [DF]2 [B,D] | %7
w: flow; * O|come in the morn- ing, O|come while you may, And|
w: go; * O|heed the kind warn- ing, O|come while you may, And|
w: woe; * O|come while He’s call- ing, O|come while you may, And|
 CDE F[EG][CA] | [DB]3- [DB]2 z ||"^Refrain" [Fd]3 [DB]2 [EG] | [DF]3- [DF]2 z | %11
w: you shall be whit- er than|snow. *|||
w: you shall be whit- er than|snow. *|Whit- er than|snow, *|
w: you shall be whit- er than|snow. *|||
 [FB]3 [DB][DB][DB] | [Fc]3- [Fc]2 z | [Fd][Fd][Fd] [Ec][Ec][Ec] | [DB][GB][GB] [^FA]3 | %15
w: ||||
w: White, whit- er than|snow; *|Come to the Sav- ior, O|come and be cleansed,|
w: ||||
 G[GB][EG] [DF]!fermata![Fd][Ec] | [DB]3- [DB]2 |] %17
w: ||
w: Come and be whit- er than|snow. *|
w: ||
V:2
 F | x6 | x6 | x6 | x6 | x6 | x6 | CDE F x2 | x6 || x6 | x6 | x6 | x6 | x6 | x6 | G x5 | x5 |] %17
V:3
 F, | [B,,D][B,,D][B,,D] [E,E][E,E][E,B,] | [B,,B,][B,,F,][B,,F,] [B,,B,]2 [B,,B,] | %3
w: White,|||
 [F,A,][F,A,][F,A,] [B,,B,][B,,F,][D,F,] | F,3- F,2 F, | %5
w: |whit- * er|
 [B,,F,][B,,F,][B,,F,] [B,,F,][B,,F,][B,,F,] | [E,G,][E,A,][E,B,] [B,,B,]2 [B,,F,] | %7
w: ||
 C,D,E, F,[E,G,][C,A,] | [B,,B,]3- [B,,B,]2 z || [B,,B,]3 [B,,F,][B,,F,][B,,B,] | %10
w: than snow, Whit- er * *||than snow; * *|
 [B,,B,]3- [B,,B,]2 z | [F,D]3 [G,B,]2 [G,B,] | [F,A,]3- [F,A,]2 z | B,B,B, [F,A,][F,A,][F,A,] | %14
w: ||||
 [G,B,][G,D][G,D] (D2 C) | [E,B,][E,B,][E,B,] [F,B,]!fermata![F,B,][F,A,] | [B,,B,]3- [B,,B,]2 |] %17
w: |||
V:4
 F, | x6 | x6 | x6 | F,3- F,2 F, | x6 | x6 | C,D,E, F, x2 | x6 || x6 | x6 | x6 | x6 | B,B,B, x3 | %14
 x3 D,3 | x6 | x5 |] %17

